X:1090
T:O Sing To Me The Auld Scotch Sangs
C:Joe Buchanan's Scottish Tome - Page 577.1
I:577 1
Z:Carl Allison
U:T=!tenuto!
R:Folk
L:1/4
M:3/4
K:D
D | (F2 B) | (A2 F) | (E2 F) | B2 A | B d2 | A3- | A2 E |
F2 B | A2 F | (E2 F) | (D2 B) | B2 F | F2 ^G | B3- | B2 c | 
(d2 A) | (c2 A) | A2 F | D2 B | (A2 F) | (E2 D) | E3 | c (B c) |
(F2 A) | (d2 A) | (B2 d) | (A2 F) | (TE2 TE) | (e2 B) | (d3 | c) (B c) |
(d2 A) | (B2 d) | (A2 F) | (D2 E) | (F2 d) | (E2 F) | D3- | D2 |]

